src/assets/2007.svg

<svg width="2640" height="2510" fill="none" xmlns="http://www.w3.org/2000/svg">
  <g filter="url(#filter0_d)">
    <path d="M1693.52 672.769c-41.99-42.404 79.75-133.51-63.35-174.671C1439.24 443.179 364.188.394 364.188.394L25.508 721.556S538.645 1336.72 584.97 1388.18c46.326 51.46 252.929 250.05 389.5 210.49 136.569-39.55 133.279-53.24 143.099-40.51 9.81 12.73-88.89 142.92-9.82 226.97 79.07 84.06 223.96 90.68 326.99 138.15 103.03 47.46-118.18 437.01 295.69 503.91 413.86 66.9 362.38-289.09 391.93-341.5 29.55-52.41 119.07 27.69 165.39 0 46.33-27.69 40.12-133.8 93.84-172.75 53.72-38.94 70.53-20.47 142.57-44.93 72.03-24.46 104.72-182.38 84.45-219.24-20.27-36.86-77.18-99.29-87.82-120.26-10.45-20.59-15.24-33.48-27.36-66.1l-.67-1.8c-12.61-33.95 15.63-67.49 44.38-127.81 28.75-60.32 81.48-130.36 5.6-198.21-75.87-67.85-181.2 21.93-226.55-45.43-45.35-67.37 6.89-114.835-93.89-157.772s-293.68 92.482-334.8 60.703c-41.12-31.775 19.59-108.614-8.91-149.554-28.49-40.94-143.07-127.365-185.07-169.768z" fill="#fff"/>
  </g>
  <defs>
    <filter id="filter0_d" x=".508" y=".394" width="2639.02" height="2509.13" filterUnits="userSpaceOnUse" color-interpolation-filters="sRGB">
      <feFlood flood-opacity="0" result="BackgroundImageFix"/>
      <feColorMatrix in="SourceAlpha" values="0 0 0 0 0 0 0 0 0 0 0 0 0 0 0 0 0 0 127 0"/>
      <feOffset dy="49"/>
      <feGaussianBlur stdDeviation="12.5"/>
      <feColorMatrix values="0 0 0 0 0 0 0 0 0 0 0 0 0 0 0 0 0 0 0.25 0"/>
      <feBlend in2="BackgroundImageFix" result="effect1_dropShadow"/>
      <feBlend in="SourceGraphic" in2="effect1_dropShadow" result="shape"/>
    </filter>
  </defs>
</svg>

<svg width="2640" height="2510" viewBox="0 0 2640 2510" fill="none" xmlns="http://www.w3.org/2000/svg">
<g filter="url(#filter0_d)">
<path d="M1693.52 672.769C1651.53 630.365 1773.27 539.259 1630.17 498.098C1439.24 443.179 364.188 0.393555 364.188 0.393555L25.5078 721.556C25.5078 721.556 538.645 1336.72 584.971 1388.18C631.297 1439.64 837.9 1638.23 974.471 1598.67C1111.04 1559.12 1107.75 1545.43 1117.57 1558.16C1127.38 1570.89 1028.68 1701.08 1107.75 1785.13C1186.82 1869.19 1331.71 1875.81 1434.74 1923.28C1537.77 1970.74 1316.56 2360.29 1730.43 2427.19C2144.29 2494.09 2092.81 2138.1 2122.36 2085.69C2151.91 2033.28 2241.43 2113.38 2287.75 2085.69C2334.08 2058 2327.87 1951.89 2381.59 1912.94C2435.31 1874 2452.12 1892.47 2524.16 1868.01C2596.19 1843.55 2628.88 1685.63 2608.61 1648.77C2588.34 1611.91 2531.43 1549.48 2520.79 1528.51C2510.34 1507.92 2505.55 1495.03 2493.43 1462.41L2492.76 1460.61C2480.15 1426.66 2508.39 1393.12 2537.14 1332.8C2565.89 1272.48 2618.62 1202.44 2542.74 1134.59C2466.87 1066.74 2361.54 1156.52 2316.19 1089.16C2270.84 1021.79 2323.08 974.325 2222.3 931.388C2121.52 888.451 1928.62 1023.87 1887.5 992.091C1846.38 960.316 1907.09 883.477 1878.59 842.537C1850.1 801.597 1735.52 715.172 1693.52 672.769Z" fill="white"/>
</g>
<defs>
<filter id="filter0_d" x="0.507812" y="0.393555" width="2639.02" height="2509.13" filterUnits="userSpaceOnUse" color-interpolation-filters="sRGB">
<feFlood flood-opacity="0" result="BackgroundImageFix"/>
<feColorMatrix in="SourceAlpha" type="matrix" values="0 0 0 0 0 0 0 0 0 0 0 0 0 0 0 0 0 0 127 0"/>
<feOffset dy="49"/>
<feGaussianBlur stdDeviation="12.5"/>
<feColorMatrix type="matrix" values="0 0 0 0 0 0 0 0 0 0 0 0 0 0 0 0 0 0 0.25 0"/>
<feBlend mode="normal" in2="BackgroundImageFix" result="effect1_dropShadow"/>
<feBlend mode="normal" in="SourceGraphic" in2="effect1_dropShadow" result="shape"/>
</filter>
</defs>
</svg>
